libs/ui/src/assets/Logo.svg

<?xml version="1.0" encoding="UTF-8" standalone="no"?>
<svg
   width="316"
   height="316"
   viewBox="0 0 316 316"
   version="1.1"
   xml:space="preserve"
   style="clip-rule:evenodd;fill-rule:evenodd"
   id="svg4"
   xmlns="http://www.w3.org/2000/svg"
   xmlns:svg="http://www.w3.org/2000/svg"
   xmlns:serif="http://www.serif.com/"><defs
   id="defs4" />
    <g
   transform="matrix(0.95489206,0,0,0.95489206,-82.06667,-76.967468)"
   id="g4">
        <g
   id="Layer-1"
   serif:id="Layer 1">
            <path
   d="m 146,89.5 c 10.9,-0.1 21.8,-0.6 32.6,-0.1 17.2,1.5 34.3,7.3 47.9,18.2 11,8.7 19,20.5 25.5,32.9 -19.1,5.9 -40.2,5.9 -58.9,-1.6 -10.7,-4.3 -20.7,-10.9 -28.5,-19.5 -7.7,-8.9 -14.1,-19 -18.6,-29.9 z"
   style="fill:#a5d233;fill-rule:nonzero;stroke:#f5e708;stroke-width:0.4px"
   id="path1" />
            <path
   d="m 160.1,96 c 12.5,5.7 24.9,11.9 37.5,17.4 15.2,7.3 30.3,14.8 45.5,22.2 -15.7,-6 -31.5,-11.8 -46.7,-19.1 -12.2,-6.6 -24.5,-13.1 -36.3,-20.4 z"
   style="fill-rule:nonzero;stroke:#000000;stroke-width:0.4px"
   id="path2" />
            <path
   d="m 275.6,110.6 c 2.7,-0.8 4.5,2.6 6.1,4.3 -11.5,12.4 -18.8,28.4 -21.2,45.1 -0.067,1.333 -0.067,2.667 0,4 22.6,1 44.5,11.1 60.5,27 32.3,30.9 43.4,80.5 30.9,122.9 -7.9,28.2 -27,52.9 -52.3,67.6 -10.2,5.8 -20.2,11.9 -30.3,17.8 -6.8,4.1 -15.8,5 -23,1.4 -10.6,-5.2 -20.2,-12 -30.6,-17.4 -23.6,-12.7 -42.5,-33.8 -52.4,-58.7 -9.7,-23.4 -11.4,-49.8 -6.1,-74.5 4.9,-22.8 16.1,-44.6 33.2,-60.7 16.4,-16 38.8,-26 61.8,-26 2.4,-19.4 10.1,-38.4 23.4,-52.8 z"
   style="fill:#ffc845;fill-rule:nonzero;stroke:#f5e708;stroke-width:0.4px"
   id="path3" />
            <path
   d="m 231.9,387.6 c 16.1,-0.3 32.3,-0.5 48.4,0 -5.3,1.6 -10.9,1.8 -16.4,2 -10.7,0.3 -21.5,0.2 -32,-2.1 z"
   style="fill-rule:nonzero;stroke:#000000;stroke-width:0.4px"
   id="path4" />
        </g>
    </g>
</svg>

<?xml version="1.0" encoding="UTF-8" standalone="no"?>
<!DOCTYPE svg PUBLIC "-//W3C//DTD SVG 1.1//EN" "http://www.w3.org/Graphics/SVG/1.1/DTD/svg11.dtd">
<svg width="100%" height="100%" viewBox="0 0 213 316" version="1.1" xmlns="http://www.w3.org/2000/svg" xmlns:xlink="http://www.w3.org/1999/xlink" xml:space="preserve" xmlns:serif="http://www.serif.com/" style="fill-rule:evenodd;clip-rule:evenodd;">
    <g transform="matrix(1,0,0,1,-145.175,-88.3567)">
        <g id="Layer-1" serif:id="Layer 1">
            <path d="M146,89.5C156.9,89.4 167.8,88.9 178.6,89.4C195.8,90.9 212.9,96.7 226.5,107.6C237.5,116.3 245.5,128.1 252,140.5C232.9,146.4 211.8,146.4 193.1,138.9C182.4,134.6 172.4,128 164.6,119.4C156.9,110.5 150.5,100.4 146,89.5Z" style="fill:rgb(165,210,51);fill-rule:nonzero;stroke:rgb(245,231,8);stroke-width:0.4px;"/>
            <path d="M160.1,96C172.6,101.7 185,107.9 197.6,113.4C212.8,120.7 227.9,128.2 243.1,135.6C227.4,129.6 211.6,123.8 196.4,116.5C184.2,109.9 171.9,103.4 160.1,96.1L160.1,96Z" style="fill-rule:nonzero;stroke:black;stroke-width:0.4px;"/>
            <path d="M275.6,110.6C278.3,109.8 280.1,113.2 281.7,114.9C270.2,127.3 262.9,143.3 260.5,160C260.433,161.333 260.433,162.667 260.5,164C283.1,165 305,175.1 321,191C353.3,221.9 364.4,271.5 351.9,313.9C344,342.1 324.9,366.8 299.6,381.5C289.4,387.3 279.4,393.4 269.3,399.3C262.5,403.4 253.5,404.3 246.3,400.7C235.7,395.5 226.1,388.7 215.7,383.3C192.1,370.6 173.2,349.5 163.3,324.6C153.6,301.2 151.9,274.8 157.2,250.1C162.1,227.3 173.3,205.5 190.4,189.4C206.8,173.4 229.2,163.4 252.2,163.4C254.6,144 262.3,125 275.6,110.6Z" style="fill:rgb(255,200,69);fill-rule:nonzero;stroke:rgb(245,231,8);stroke-width:0.4px;"/>
            <path d="M231.9,387.6C248,387.3 264.2,387.1 280.3,387.6C275,389.2 269.4,389.4 263.9,389.6C253.2,389.9 242.4,389.8 231.9,387.5L231.9,387.6Z" style="fill-rule:nonzero;stroke:black;stroke-width:0.4px;"/>
        </g>
    </g>
</svg>
